X: 73
T:Fisherman, the
M:4/4
L:1/4
R:Reel
K:G
D|"G"D G G B|B d d2|d2 e&gt;d|"D7"d c c2|D F F A|A c c2|"D7"f&gt;e f&gt;e|"G"e de d|!
"G"D G G B|B d d2|d2 g&gt;d|"D"f e "C"e2|f e f e|e d e d|d&gt;c "D7"B A|"G"G2-G D|!
"G"D G B G|D G B G|B2 "Am"c&gt;B|"G"B "D"A A2|D F A F|D F A F|"C"f&gt;e f&gt;e|"G"e d e d|!
D G B G|D G B G|d2 g&gt;d|"C"f e e2|fefe|"G"eded|"D7"d&gt;c BA|"G"G2-G||

